;FLAVOR:Marlin
;TIME:201
;Filament used: 0.561584m
;Layer height: 0.3
;Generated with Cura_SteamEngine 3.2.1
M104 S210
M109 S210
M82 ;absolute extrusion mode
G28 ;Home
G1 Z15.0 F6000 ;Move the platform down 15mm
;Prime the extruder
G92 E0
G1 F200 E3
G92 E0
;LAYER_COUNT:4
;LAYER:0
M107
G0 F4200 X106 Y49.9 Z0.3
;TYPE:WALL-INNER
G1 X106 Y38 E0.59369
G1 X93 Y38 E1.24227
G1 X93 Y36 E1.34205
G1 X107 Y36 E2.04051
G1 X107 Y164 E8.42646
G1 X93 Y164 E9.12492
G1 X93 Y49.9 E14.81739
G1 X106 Y49.9 E15.46596
G0 X102.019 Y72.904
G1 X102.476 Y71.505 E15.53939
G1 X102.476 Y55.835 E16.32117
G1 X101.325 Y55 E16.39211
G1 X97.675 Y55 E16.57421
G1 X96.873 Y55.582 E16.62365
G1 X93.524 Y58.931 E16.85994
G1 X93.524 Y68.504 E17.33754
G1 X93.829 Y69.442 E17.38675
G1 X97.291 Y72.904 E17.63101
G1 X102.019 Y72.904 E17.86689
G0 X103.111 Y86.522
G0 X103.115 Y143.446
G0 X103.019 Y144.905
G1 X103.476 Y143.504 E17.94041
G1 X103.476 Y126.506 E18.78844
G1 X102.325 Y125.67 E18.85942
G1 X102.214 Y125.67 E18.86495
G1 X102.213 Y125.67 E18.865
G1 X101.822 Y125.67 E18.88451
G1 X102.052 Y125.353 E18.89534
G1 X102.853 Y124.252 E18.96327
G1 X102.853 Y121.748 E19.08819
G1 X101.381 Y119.723 E19.21309
G1 X101.28 Y119.69 E19.21839
G1 X100.695 Y119.5 E19.24908
G1 X101.28 Y119.31 E19.26517
G1 X101.381 Y119.277 E19.27047
G1 X102.853 Y117.252 E19.39537
G1 X102.853 Y114.748 E19.5203
G1 X101.428 Y112.787 E19.64124
G1 X101.381 Y112.723 E19.6452
G1 X100.404 Y112.405 E19.69646
G1 X101.381 Y112.405 E19.71546
G1 X101.461 Y112.405 E19.71908
G1 X103.019 Y112.405 E19.79681
G1 X103.476 Y111.004 E19.87033
G1 X103.476 Y86.336 E21.10103
G1 X102.325 Y85.5 E21.172
G1 X101.554 Y85.5 E21.21046
G1 X101.381 Y85.5 E21.21909
G1 X100.696 Y85.5 E21.25327
G1 X101.381 Y85.277 E21.26422
G1 X101.482 Y85.138 E21.27109
G1 X102.853 Y83.252 E21.38742
G1 X102.853 Y80.748 E21.51235
G1 X101.381 Y78.723 E21.63724
G1 X99 Y77.948 E21.76217
G1 X96.619 Y78.723 E21.88709
G1 X95.147 Y80.748 E22.01199
G1 X95.147 Y83.252 E22.13691
G1 X96.619 Y85.277 E22.26181
G1 X97.726 Y85.638 E22.3199
G1 X98.189 Y85.788 E22.34419
G1 X97.754 Y86.005 E22.35721
G1 X95.48 Y87.143 E22.48407
G1 X94.524 Y87.836 E22.54298
G1 X94.524 Y109.005 E23.59911
G1 X94.863 Y110.044 E23.65363
G1 X97.796 Y112 E23.82952
G1 X98.138 Y112.228 E23.85002
G1 X97.747 Y112.355 E23.86131
G1 X96.619 Y112.723 E23.92051
G1 X95.147 Y114.748 E24.04541
G1 X95.147 Y117.252 E24.17033
G1 X96.619 Y119.277 E24.29523
G1 X96.72 Y119.31 E24.30053
G1 X97.305 Y119.5 E24.33122
G1 X96.72 Y119.69 E24.34731
G1 X96.619 Y119.723 E24.35261
G1 X95.147 Y121.748 E24.47751
G1 X95.147 Y124.252 E24.60244
G1 X96.619 Y126.277 E24.72734
G1 X96.721 Y126.311 E24.7327
G1 X97.184 Y126.461 E24.75698
G1 X96.749 Y126.678 E24.77
G1 X95.48 Y127.313 E24.8408
G1 X94.524 Y128.006 E24.89971
G1 X94.524 Y141.503 E25.57308
G1 X94.861 Y142.545 E25.62771
G1 X97.292 Y144.165 E25.77346
G1 X97.634 Y144.393 E25.79396
G1 X97.243 Y144.52 E25.80526
G1 X96.619 Y144.723 E25.83799
G1 X95.147 Y146.748 E25.96289
G1 X95.147 Y149.252 E26.08782
G1 X96.619 Y151.277 E26.21272
G1 X99 Y152.052 E26.33764
G1 X101.381 Y151.277 E26.46256
G1 X102.853 Y149.252 E26.58746
G1 X102.853 Y146.748 E26.71239
G1 X101.743 Y145.222 E26.80653
G1 X101.513 Y144.905 E26.82607
G1 X101.904 Y144.905 E26.83688
G1 X101.905 Y144.905 E26.83693
G1 X103.019 Y144.905 E26.89251
G0 X102.729 Y144.505
G1 X103.076 Y143.44 E26.94839
G1 X103.076 Y126.71 E27.78305
G1 X102.195 Y126.07 E27.83738
G1 X101.396 Y126.07 E27.87724
G1 X101.134 Y126.07 E27.89031
G1 X100.725 Y126.07 E27.91072
G1 X101.134 Y125.937 E27.91495
G1 X101.288 Y125.725 E27.92415
G1 X102.453 Y124.122 E28.02301
G1 X102.453 Y121.878 E28.13496
G1 X101.134 Y120.063 E28.2469
G1 X99.986 Y119.689 E28.30714
G1 X99.403 Y119.5 E28.33771
G1 X99.986 Y119.311 E28.35372
G1 X101.134 Y118.937 E28.41396
G1 X102.453 Y117.122 E28.5259
G1 X102.453 Y114.878 E28.63785
G1 X101.134 Y113.063 E28.74979
G1 X99.107 Y112.403 E28.85614
G1 X99 Y112.369 E28.86174
G1 X98.893 Y112.403 E28.86734
G1 X96.866 Y113.063 E28.9737
G1 X95.547 Y114.878 E29.08563
G1 X95.547 Y117.122 E29.19759
G1 X96.866 Y118.937 E29.30952
G1 X98.014 Y119.311 E29.36976
G1 X98.597 Y119.5 E29.40034
G1 X98.014 Y119.689 E29.41635
G1 X96.866 Y120.063 E29.47659
G1 X95.547 Y121.878 E29.58852
G1 X95.547 Y124.122 E29.70048
G1 X96.866 Y125.937 E29.81241
G1 X97.772 Y126.232 E29.85995
G1 X98.235 Y126.382 E29.88423
G1 X97.8 Y126.599 E29.89725
G1 X95.688 Y127.656 E30.01508
G1 X94.924 Y128.21 E30.06216
G1 X94.924 Y141.44 E30.72221
G1 X95.199 Y142.289 E30.76673
G1 X98.197 Y144.287 E30.94648
G1 X98.524 Y144.505 E30.96608
G1 X98.582 Y144.505 E30.96898
G1 X98.53 Y144.522
G1 X98.156 Y144.643 E30.98017
G1 X96.866 Y145.063 E31.04785
G1 X95.547 Y146.878 E31.15979
G1 X95.547 Y149.122 E31.27174
G1 X96.866 Y150.937 E31.38368
G1 X99 Y151.631 E31.49563
G1 X101.134 Y150.937 E31.60758
G1 X102.453 Y149.122 E31.71952
G1 X102.453 Y146.878 E31.83147
G1 X101.134 Y145.063 E31.94341
G1 X100.617 Y144.895 E31.97053
G1 X99.418 Y144.505 E32.03344
G1 X100.678 Y144.505 E32.06525
G1 X100.679 Y144.505 E32.0653
G1 X102.729 Y144.505 E32.16758
G0 X102.787 Y144.585
G0 X107.33 Y164.33
G0 X107.4 Y164.4
G1 X92.6 Y164.4 E32.90595
G1 X92.6 Y35.6 E39.33181
G1 X107.4 Y35.6 E40.07019
G1 X107.4 Y164.4 E46.49604
G0 X107.33 Y164.33
G0 X102.787 Y112.085
G0 X102.729 Y112.005
G1 X103.076 Y110.94 E46.55193
G1 X103.076 Y86.54 E47.76925
G1 X102.195 Y85.9 E47.82357
G1 X99.413 Y85.9 E47.96237
G1 X99 Y85.9 E47.98297
G1 X98.859 Y85.9 E47.99001
G1 X98.749 Y85.955 E47.99614
G1 X95.688 Y87.486 E48.16689
G1 X94.924 Y88.04 E48.21398
G1 X94.924 Y108.941 E49.25673
G1 X95.2 Y109.788 E49.30118
G1 X98.524 Y112.005 E49.50051
G1 X98.887 Y112.005 E49.51862
G1 X99 Y112.005 E49.52401
G1 X99.113 Y112.005 E49.5294
G1 X102.729 Y112.005 E49.7098
G0 X102.787 Y112.085
G0 X103.115 Y110.946
G0 X103.111 Y86.522
G0 X102.207 Y85.862
G0 X99 Y85.731
G0 X99 Y85.631
G1 X99.392 Y85.504 E49.72703
G1 X101.134 Y84.937 E49.81843
G1 X102.453 Y83.122 E49.93037
G1 X102.453 Y80.878 E50.04232
G1 X101.134 Y79.063 E50.15426
G1 X99 Y78.369 E50.26621
G1 X96.866 Y79.063 E50.37817
G1 X95.547 Y80.878 E50.4901
G1 X95.547 Y83.122 E50.60206
G1 X96.866 Y84.937 E50.71399
G1 X98.835 Y85.577 E50.81728
G1 X98.951 Y85.615 E50.82173
G1 X99 Y85.631
G0 X99 Y85.731
G0 X101.157 Y84.969
G0 X102.491 Y83.134
G0 X102.491 Y81.298
G0 X101.787 Y72.584
G0 X101.729 Y72.504
G1 X102.076 Y71.441 E50.87752
G1 X102.076 Y56.039 E51.64593
G1 X101.195 Y55.4 E51.70022
G1 X97.805 Y55.4 E51.86935
G1 X97.134 Y55.887 E51.91072
G1 X93.924 Y59.097 E52.1372
G1 X93.924 Y68.441 E52.60337
G1 X94.18 Y69.227 E52.64461
G1 X97.457 Y72.504 E52.87582
G1 X101.729 Y72.504 E53.08895
G0 X101.787 Y72.584
G0 X102.115 Y71.447
G0 X102.111 Y56.021
G0 X93.372 Y49.528
G0 X93.33 Y38.33
G0 X93.4 Y38.4
G1 X93.4 Y49.5 E53.64274
G1 X105.6 Y49.5 E54.2514
G1 X105.6 Y38.4 E54.80518
G1 X93.4 Y38.4 E55.41384
G0 X93.8 Y38.8
;TYPE:WALL-OUTER
G1 X93.8 Y49.1 E55.92771
G1 X105.2 Y49.1 E56.49646
G1 X105.2 Y38.8 E57.01032
G1 X93.8 Y38.8 E57.57907
G0 X93.8 Y39
G0 X93.3 Y39
G0 X93.372 Y49.528
G0 X102.111 Y56.021
G0 X102.115 Y71.447
G0 X101.752 Y72.536
G0 X101.439 Y72.604
G0 X101.439 Y72.104
G1 X101.676 Y71.377 E57.61722
G1 X101.676 Y56.243 E58.37226
G1 X101.065 Y55.8 E58.40991
G1 X97.935 Y55.8 E58.56607
G1 X97.394 Y56.192 E58.5994
G1 X94.324 Y59.263 E58.81604
G1 X94.324 Y68.377 E59.27074
G1 X94.531 Y69.012 E59.30406
G1 X97.623 Y72.104 E59.52222
G1 X101.439 Y72.104 E59.7126
G0 X101.501 Y71.914
G0 X101.976 Y72.07
G0 X101.796 Y72.447
G0 X96.711 Y79.109
G0 X97.113 Y79.403
G1 X95.947 Y81.008 E59.81157
G1 X95.947 Y82.992 E59.91055
G1 X97.113 Y84.597 E60.00953
G1 X99 Y85.21 E60.10851
G1 X100.887 Y84.597 E60.2075
G1 X102.053 Y82.992 E60.30647
G1 X102.053 Y81.008 E60.40546
G1 X100.887 Y79.403 E60.50443
G1 X99 Y78.79 E60.60341
G1 X97.113 Y79.403 E60.7024
G0 X96.996 Y79.564
G0 X96.594 Y79.27
G0 X95.509 Y80.866
G0 X95.509 Y83.134
G0 X96.843 Y84.969
G0 X98.85 Y85.862
G0 X102.207 Y85.862
G0 X103.111 Y86.522
G0 X103.115 Y110.946
G0 X102.913 Y111.76
G0 X102.439 Y111.605
G1 X102.676 Y110.877 E60.7406
G1 X102.676 Y86.744 E61.9446
G1 X102.065 Y86.3 E61.98228
G1 X98.953 Y86.3 E62.13754
G1 X95.896 Y87.829 E62.30806
G1 X95.324 Y88.244 E62.34332
G1 X95.324 Y108.878 E63.37275
G1 X95.537 Y109.532 E63.40707
G1 X98.645 Y111.605 E63.59346
G1 X102.439 Y111.605 E63.78274
G0 X102.5 Y111.415
G0 X102.975 Y111.57
G0 X102.752 Y112.037
G0 X99 Y112.329
G0 X96.711 Y113.109
G0 X97.113 Y113.403
G1 X95.947 Y115.008 E63.88171
G1 X95.947 Y116.992 E63.98069
G1 X97.113 Y118.597 E64.07967
G1 X99 Y119.21 E64.17865
G1 X100.887 Y118.597 E64.27764
G1 X102.053 Y116.992 E64.37661
G1 X102.053 Y115.008 E64.4756
G1 X100.887 Y113.403 E64.57457
G1 X99 Y112.79 E64.67355
G1 X97.113 Y113.403 E64.77254
G0 X96.996 Y113.564
G0 X96.594 Y113.27
G0 X95.509 Y114.866
G0 X95.509 Y117.134
G0 X96.711 Y120.109
G0 X97.113 Y120.403
G1 X95.947 Y122.008 E64.87151
G1 X95.947 Y123.992 E64.9705
G1 X97.113 Y125.597 E65.06947
G1 X98.844 Y126.16 E65.16028
G1 X99 Y126.21 E65.16846
G1 X99.42 Y126.074 E65.19048
G1 X100.887 Y125.597 E65.26744
G1 X102.053 Y123.992 E65.36642
G1 X102.053 Y122.008 E65.4654
G1 X100.887 Y120.403 E65.56437
G1 X99 Y119.79 E65.66336
G1 X97.113 Y120.403 E65.76234
G0 X96.996 Y120.564
G0 X96.594 Y120.27
G0 X95.509 Y117.134
G0 X95.509 Y114.866
G0 X96.843 Y113.031
G0 X99 Y112.329
G0 X101.157 Y113.031
G0 X102.491 Y114.866
G0 X103.111 Y126.692
G0 X103.115 Y143.446
G0 X102.913 Y144.26
G0 X102.439 Y144.105
G1 X102.676 Y143.377 E65.80054
G1 X102.676 Y126.914 E66.62188
G1 X102.065 Y126.47 E66.65956
G1 X99.442 Y126.47 E66.79042
G1 X99 Y126.47 E66.80867
G1 X98.953 Y126.47 E66.81061
G1 X98.806 Y126.543 E66.81751
G1 X95.896 Y127.999 E66.97985
G1 X95.324 Y128.414 E67.01511
G1 X95.324 Y141.377 E67.66183
G1 X95.537 Y142.033 E67.69624
G1 X98.645 Y144.105 E67.8826
G1 X102.439 Y144.105 E68.07189
G0 X102.5 Y143.915
G0 X102.975 Y144.07
G0 X102.491 Y149.134
G0 X101.157 Y150.969
G0 X99 Y151.671
G0 X96.843 Y150.969
G0 X95.509 Y149.134
G0 X95.509 Y146.866
G0 X96.711 Y145.109
G0 X97.113 Y145.403
G1 X95.947 Y147.008 E68.17086
G1 X95.947 Y148.992 E68.26984
G1 X97.113 Y150.597 E68.36881
G1 X99 Y151.21 E68.4678
G1 X100.887 Y150.597 E68.56679
G1 X102.053 Y148.992 E68.66576
G1 X102.053 Y147.008 E68.76474
G1 X100.887 Y145.403 E68.86372
G1 X99 Y144.79 E68.9627
G1 X97.113 Y145.403 E69.06169
G0 X96.996 Y145.564
G0 X96.594 Y145.27
G0 X95.509 Y146.866
G0 X95.509 Y149.134
G0 X96.265 Y150.173
G0 X107.33 Y164.33
G0 X107.8 Y164.8
G1 X92.2 Y164.8 E69.83997
G1 X92.2 Y35.2 E76.30574
G1 X107.8 Y35.2 E77.08403
G1 X107.8 Y164.8 E83.5498
G0 X107.6 Y164.8
G0 X107.33 Y164.33
G0 X106.61 Y163.61
;TYPE:SKIN
G1 X93.39 Y163.61 E84.20935
G1 X93.39 Y69.353 E88.91185
G1 X93.487 Y69.651 E88.92749
G1 X97.129 Y73.294 E89.18448
G1 X102.302 Y73.294 E89.44257
G1 X102.866 Y71.567 E89.53321
G1 X102.866 Y55.636 E90.32801
G1 X101.452 Y54.61 E90.41517
G1 X97.548 Y54.61 E90.60994
G1 X96.619 Y55.284 E90.6672
G1 X93.39 Y58.513 E90.89502
G1 X93.39 Y50.29 E91.30527
G1 X106.39 Y50.29 E91.95384
G1 X106.39 Y37.61 E92.58645
G1 X93.39 Y37.61 E93.23502
G1 X93.39 Y36.39 E93.29589
G1 X106.61 Y36.39 E93.95544
G1 X106.61 Y163.61 E100.30247
G0 X101.622 Y151.609
G1 X103.243 Y149.379 E100.44001
G1 X103.243 Y146.621 E100.57761
G1 X102.279 Y145.295 E100.6594
G1 X103.302 Y145.295 E100.71043
G1 X103.866 Y143.566 E100.80117
G1 X103.866 Y126.307 E101.66222
G1 X102.541 Y125.345 E101.74391
G1 X103.243 Y124.379 E101.80349
G1 X103.243 Y121.621 E101.94109
G1 X101.701 Y119.5 E102.07191
G1 X103.243 Y117.379 E102.20274
G1 X103.243 Y114.621 E102.34034
G1 X101.916 Y112.795 E102.45295
G1 X103.302 Y112.795 E102.5221
G1 X103.866 Y111.066 E102.61283
G1 X103.866 Y86.137 E103.85654
G1 X102.452 Y85.11 E103.94373
G1 X101.985 Y85.11 E103.96703
G1 X103.243 Y83.379 E104.07379
G1 X103.243 Y80.621 E104.21139
G1 X101.622 Y78.391 E104.34893
G1 X99 Y77.538 E104.48649
G1 X96.378 Y78.391 E104.62405
G1 X94.757 Y80.621 E104.76159
G1 X94.757 Y83.379 E104.89919
G1 X96.378 Y85.609 E105.03673
G1 X97.164 Y85.865 E105.07797
G1 X95.277 Y86.808 E105.18322
G1 X94.134 Y87.637 E105.25366
G1 X94.134 Y109.067 E106.32281
G1 X94.534 Y110.294 E106.38719
G1 X97.252 Y112.106 E106.55017
G1 X96.378 Y112.391 E106.59603
G1 X94.757 Y114.621 E106.73357
G1 X94.757 Y117.379 E106.87117
G1 X96.299 Y119.5 E107.002
G1 X94.757 Y121.621 E107.13282
G1 X94.757 Y124.379 E107.27042
G1 X96.281 Y126.476 E107.39975
G1 X95.277 Y126.978 E107.45575
G1 X94.134 Y127.807 E107.5262
G1 X94.134 Y141.565 E108.21259
G1 X94.532 Y142.794 E108.27704
G1 X96.748 Y144.27 E108.40987
G1 X96.378 Y144.391 E108.42929
G1 X94.757 Y146.621 E108.56684
G1 X94.757 Y149.379 E108.70443
G1 X96.378 Y151.609 E108.84198
G1 X99 Y152.462 E108.97954
G1 X101.622 Y151.609 E109.1171
G0 X93.85 Y163.429
G1 X93.569 Y163.148 E109.13692
G0 X93.569 Y162.582
G1 X94.415 Y163.429 E109.19665
G1 X94.485 Y163.499
G0 X94.981 Y163.429
G1 X93.569 Y162.017 E109.29627
G1 X93.499 Y161.947
G0 X93.569 Y161.451
G1 X95.547 Y163.429 E109.43583
G1 X95.617 Y163.499
G0 X96.112 Y163.429
G1 X93.569 Y160.885 E109.61529
G1 X93.499 Y160.815
G0 X93.569 Y160.32
G1 X96.678 Y163.429 E109.83465
G1 X96.748 Y163.499
G0 X97.244 Y163.429
G1 X93.569 Y159.754 E110.09394
G1 X93.499 Y159.684
G0 X93.569 Y159.188
G1 X97.809 Y163.429 E110.39313
G1 X97.879 Y163.499
G0 X98.375 Y163.429
G1 X93.569 Y158.623 E110.73222
G1 X93.499 Y158.553
G0 X93.569 Y158.057
G1 X98.941 Y163.429 E111.11124
G1 X99.011 Y163.499
G0 X99.506 Y163.429
G1 X93.569 Y157.491 E111.53016
G1 X93.499 Y157.421
G0 X93.569 Y156.926
G1 X100.072 Y163.429 E111.98898
G1 X100.142 Y163.499
G0 X100.638 Y163.429
G1 X93.569 Y156.36 E112.48774
G1 X93.499 Y156.29
G0 X93.569 Y155.794
G1 X101.203 Y163.429 E113.0264
G1 X101.273 Y163.499
G0 X101.769 Y163.429
G1 X93.569 Y155.229 E113.60495
G1 X93.499 Y155.159
G0 X93.569 Y154.663
G1 X102.335 Y163.429 E114.22344
G1 X102.405 Y163.499
G0 X102.901 Y163.429
G1 X93.569 Y154.097 E114.88186
G1 X93.499 Y154.027
G0 X93.569 Y153.531
G1 X103.466 Y163.429 E115.58018
G1 X103.536 Y163.499
G0 X104.032 Y163.429
G1 X93.569 Y152.966 E116.3184
G1 X93.499 Y152.896
G0 X93.569 Y152.4
G1 X104.598 Y163.429 E117.09656
G1 X104.668 Y163.499
G0 X105.163 Y163.429
G1 X93.569 Y151.834 E117.91461
G1 X93.499 Y151.764
G0 X93.569 Y151.269
G1 X105.729 Y163.429 E118.77257
G1 X105.799 Y163.499
G0 X106.295 Y163.429
G1 X93.569 Y150.703 E119.67046
G1 X93.499 Y150.633
G0 X93.569 Y150.137
G1 X106.429 Y162.998 E120.57783
G1 X106.499 Y163.068
G0 X106.429 Y162.432
G1 X93.569 Y149.572 E121.48518
G1 X93.499 Y149.502
G0 X93.569 Y149.006
G1 X96.112 Y151.549 E121.6646
G1 X96.182 Y151.619
G0 X96.352 Y151.789
G1 X106.429 Y161.866 E122.37559
G1 X106.499 Y161.936
G0 X106.429 Y161.3
G1 X97.19 Y152.061 E123.02745
G1 X97.12 Y151.991
G0 X98.029 Y152.334
G1 X106.429 Y160.735 E123.62015
G1 X106.499 Y160.805
G0 X106.429 Y160.169
G1 X98.866 Y152.607 E124.15372
G1 X98.796 Y152.537
G0 X99.359 Y152.534
G1 X106.429 Y159.603 E124.65251
G1 X106.499 Y159.673
G0 X106.429 Y159.038
G1 X99.786 Y152.394 E125.12125
G1 X99.716 Y152.324
G0 X100.213 Y152.256
G1 X106.429 Y158.472 E125.55982
G1 X106.499 Y158.542
G0 X106.429 Y157.906
G1 X100.64 Y152.117 E125.96827
G1 X100.57 Y152.047
G0 X101.066 Y151.978
G1 X106.429 Y157.341 E126.34666
G1 X106.499 Y157.411
G0 X106.429 Y156.775
G1 X101.493 Y151.839 E126.69492
G1 X101.423 Y151.769
G0 X101.837 Y151.617
G1 X106.429 Y156.209 E127.01891
G1 X106.499 Y156.279
G0 X106.429 Y155.644
G1 X102.075 Y151.29 E127.32611
G1 X102.005 Y151.22
G0 X102.313 Y150.962
G1 X106.429 Y155.078 E127.61651
G1 X106.499 Y155.148
G0 X106.429 Y154.512
G1 X102.551 Y150.634 E127.89013
G1 X102.481 Y150.564
G0 X102.789 Y150.307
G1 X106.429 Y153.947 E128.14695
G1 X106.499 Y154.017
G0 X106.429 Y153.381
G1 X103.027 Y149.979 E128.38698
G1 X102.957 Y149.909
G0 X103.265 Y149.652
G1 X106.429 Y152.815 E128.61018
G1 X106.499 Y152.885
G0 X106.429 Y152.249
G1 X103.422 Y149.243 E128.8223
G1 X103.352 Y149.173
G0 X103.422 Y148.677
G1 X106.429 Y151.684 E129.03446
G1 X106.499 Y151.754
G0 X106.429 Y151.118
G1 X103.422 Y148.112 E129.24659
G1 X103.352 Y148.042
G0 X103.422 Y147.546
G1 X106.429 Y150.552 E129.45871
